X:1
T:Title
%%score { ( 1 3 5 ) | ( 2 4 ) }
L:1/8
M:4/4
K:D
V:1 treble nm="Grand Piano"
V:3 treble 
V:5 treble 
V:2 bass 
V:4 bass 
V:1
 z4 z2[Q:1/4=94] D>E | F>=F ^F>G F2 F>[EG] |[M:3/4] [FA]>[=F^G] [^FA]>[=GB] [FA]2 | %3
[M:11/32] z/4 z/4 z/4 z/4 z/4 z/4 z/ [Gc]3/4 | %4
[M:4/4] (5:4:5[Ad]2 [Ae]/ [Gd]/-[Gd]3/2[DGB]/ z2 (3:2:2[A,D]2 [B,DE] | %5
[M:7/8] [DF]3/2-[DF]/4 z/4 [A,DF]3/2-[A,DF]/4 z/4 z z2 |[M:1/4] (3:2:2F2 G | %7
[M:4/4] (9:8:9A/A3/2 [A,CE]2 [A,DF]/ [A,EG]/-[A,EG]3/2c/-c3/2B/ |[M:3/4] (3A3 F3 [FA]3 | %9
[M:11/32] z/4 z/4 z/4 z/4 z/4 z/4 z/ [Gc]3/4 |[M:4/4] [Ad]>[Ae] [Gd]>[DGB] [DFA]2 [A,D]>[B,DE] | %11
[M:15/8] [DF]>[EG][A,DF]-[A,DF]/[K:bass][G,CE]/ [F,D]2- [F,D] z2 z6 |] %12
V:2
 z4 z2 [D,F,]>[E,G,D] | [D,A,D]>[D,^G,D] [D,A,D]>[D,B,D] [D,A,D]2 [D,A,D]>[D,A,] | %2
[M:3/4] [D,D]>[D,D] [D,D]>[D,D] [D,D]2 |[M:11/32] A,/4-A,/4-A,/4-A,/4-A,/-<A,/[E,A,]3/4 | %4
[M:4/4] (5:4:5[F,A,]2 [F,A,]/ [G,B,]/-[G,B,]3/2G,/ z2 (3:2:2F,2 G, |[M:7/8] A,2 A,,2 D,3 | %6
[M:1/4][K:treble] (3:2:2D2 E | %7
[M:4/4] (9:8:9F/F3/2 A,,2[K:bass] A,,/ A,,/-A,,3/2A/-[K:treble]A3/2G/ | %8
[M:3/4] (3F3[K:bass] [D,A,D]3 [D,D]3 |[M:11/32] A,/4-A,/4-A,/4-A,/4-A,/-<A,/[E,A,]3/4 | %10
[M:4/4] [F,A,]>[F,A,] [G,B,]>G, D,2 F,>G, |[M:15/8] A,>A,A,,-A,,/A,,/ D,2- D, z2 z6 |] %12
V:3
 x8 | x8 |[M:3/4] x6 |[M:11/32] [Fd]/4-[Fd]/4-[Fd]/4-[Fd]/4-[Fd]/4-[Fd]/4-[Fd]/-<[Fd]/ z/4 | %4
[M:4/4] z4 [DFA]2- [DFA]/4 z/4 z/ z | %5
[M:7/8] z z/ [EG]/-[EG]/4 z/4 z/ z/ [G,CE]/-[G,CE]/4 z/4 z/ z2 |[M:1/4] x2 |[M:4/4] x481/60 | %8
[M:3/4] z z/ G/- G/4 z/4 z/ z/ [EG]/- [EG]/4 z/4 z/ z | %9
[M:11/32] [Fd]/4-[Fd]/4-[Fd]/4-[Fd]/4-[Fd]/4-[Fd]/-<[Fd]/ z/ |[M:4/4] x8 | %11
[M:15/8] x7/2[K:bass] x23/2 |] %12
V:4
 x8 | x8 |[M:3/4] x6 |[M:11/32] D,/4-D,/4-D,/4-D,/4-D,/4-D,/4-D,/-<D,/ z/4 | %4
[M:4/4] z4 D,2- D,/4 z/4 z/ z |[M:7/8] z z/ A,/-A,/4 z/4 z/ z/ A,,/-A,,/4 z/4 z/ z2 | %6
[M:1/4][K:treble] x2 |[M:4/4] x43/24[K:bass] x4[K:treble] x2 | %8
[M:3/4] z z/[K:bass] E/- E/4 z/4 z/ z/ [D,A,]/- [D,A,]/4 z/4 z/ z | %9
[M:11/32] D,/4-D,/4-D,/4-D,/4-D,/4-D,/-<D,/ z/ |[M:4/4] x8 |[M:15/8] x15 |] %12
V:5
 x8 | x8 |[M:3/4] x6 |[M:11/32] x11/4 |[M:4/4] x8 |[M:7/8] z z z2 [F,D]3 |[M:1/4] x2 | %7
[M:4/4] x481/60 |[M:3/4] x6 |[M:11/32] x11/4 |[M:4/4] x8 |[M:15/8] x7/2[K:bass] x23/2 |] %12

